!!!!SEGMENT: pl-kk--i-545--002_anonim--2-jako-wladca-pan-swych-poddanych.krn
!!!cenid: 18xx:4479
!!!COM: Anonim
!!!COM-rismID: pe30004985
!!!CDT:
!!!CNT:
!!!OTL: 2. Jako władca Pan swych poddanych
!!!PDT:
!!!AGN: Sacred
!!!YEC: Copyright 2022 Narodowy Instytut Fryderyka Chopina (https://polishscores.org)
!!!YEM: License CC-BY-4.0 (https://creativecommons.org/licenses/by/4.0)
!!!SMS-siglum: PL-Kk
!!!SMS-shelfmark: I.545
!!!SMS-variant:
!!!SMS-altvar:
!!!SMS-shelfwork: 002 W
!!!NIFC-rismSourceID: 1001210831
!!!NIFC-rismChildID: 1001210833
!!!NIFC-islandoraID: pl-kk:17058
!!!URL-pdf-islandora: https://repozytorium.nifc.pl/islandora/object/pl-kk%3A17058/datastream/PDF/view
!!!URL-scan: https://polish.musicsources.pl/pl/lokalizacje/galeria/rekopisy/7172/3 @EN{Scan on Polish Music Sources Website} @PL{Skany w portalu Dziedzictwo Muzyki Polskiej w otwartym dostępie}
!!!IIIF:
!!!ONB-nifc: UWAGA: 2r-v.
!!!OMD: Allegro
!!!AIN: 2 vox
!!!key: F
**kern	**text	**dynam	**kern	**text	**dynam
*part2	*part2	*part2	*part1	*part1	*part1
*staff2	*staff2	*	*staff1	*staff1	*
*I"[Voce]	*	*	*I"[Voce]	*	*
*Ivox	*	*	*Ivox	*	*
*ICvox	*	*	*ICvox	*	*
*clefF4	*	*	*clefG2	*	*
*k[b-]	*	*	*k[b-]	*	*
*F:	*	*	*F:	*	*
*M4/4	*	*	*M4/4	*	*
*met(c)	*	*	*met(c)	*	*
=1	=1	=1	=1	=1	=1
*^	*	*	*^	*	*
!	!	!	!LO:DY:a:rj	!	!	!	!LO:DY:a
4.F/	4.F\	.	ff	4.f/	4.f\	Ja-	ff
8C/	8C\	.	.	8c/	8c\	-ko	.
4F/	4F\	.	.	4f/	4f\	wład-	.
4A/	4A\	.	.	4a/	4a\	-ca	.
=2	=2	=2	=2	=2	=2	=2	=2
2c/	2c\	.	.	2cc/	2cc\	Pan	.
4r	4ryy	.	.	4r	4ryy	.	.
8A/	8F\	.	.	8ff/	8cc\	swych	.
8A/	8F\	.	.	8ff/	8cc\	pod-	.
=3	=3	=3	=3	=3	=3	=3	=3
4B-/	4G\	.	.	4ff/	4cc\	-da-	.
4B-/	4G\	.	.	4ee/	4cc\	-nych	.
2r	2ryy	.	.	2r	2ryy	.	.
=4	=4	=4	=4	=4	=4	=4	=4
4.G/	4.G\	.	.	4.g/	4.g\	Ja-	.
8C/	8C\	.	.	8c/	8c\	-ko	.
4E/	4E\	.	.	4e/	4e\	wład-	.
4G/	4G\	.	.	4g/	4g\	-ca	.
=5	=5	=5	=5	=5	=5	=5	=5
2c/	2c\	.	.	2cc/	2cc\	Pan	.
4r	4ryy	.	.	4r	4ryy	.	.
8B-/	8E\	.	.	8gg/	8cc\	swych	.
8B-/	8E\	.	.	8gg/	8cc\	pod-	.
=6	=6	=6	=6	=6	=6	=6	=6
4B-/	4F\	.	.	4gg/	4cc\	-da-	.
4A/	4F\	.	.	4ff/	4cc\	-nych	.
4A/	4F\	.	.	4ff/	4cc\	bło-	.
4A/	4D\	.	.	4ff/	4dd\	-go-	.
!!LO:LB:g=original
=7	=7	=7	=7	=7	=7	=7	=7
4B-/	4B-\	.	.	(8ee/L	4dd\	-sła-	.
.	.	.	.	8gg/J)	.	.	.
4B-/	4BB-\	.	.	(8ff/L	8dd\L	-wi	.
.	.	.	.	8ee/J)	8cc\J	.	.
4F/	4BB-\	.	.	(8dd/L	8b-\L	dzie-	.
.	.	.	.	8ff/J)	8dd\J	.	.
4F/	4D\	.	.	(8ee/L	8cc\L	-ci	.
.	.	.	.	8dd/J)	8b-\J	.	.
=8	=8	=8	=8	=8	=8	=8	=8
4F/	4F\	.	.	4cc/	4a\	swe	.
4r	4ryy	.	.	4r	4ryy	.	.
4A/	4F\	.	.	4ff/	4cc\	bło-	.
4A/	4D\	.	.	4ff/	4dd\	-go-	.
=9	=9	=9	=9	=9	=9	=9	=9
4B-/	4B-\	.	.	(8ee/L	4dd\	-sła-	.
.	.	.	.	8gg/J)	.	.	.
4B-/	4BB-\	.	.	(8ff/L	8dd\L	-wi	.
.	.	.	.	8ee/J)	8cc\J	.	.
4F/	4BB-\	.	.	(8dd/L	8b-\L	dzie-	.
.	.	.	.	8ff/J)	8dd\J	.	.
4F/	4D\	.	.	(8ee/L	8cc\L	-ci	.
.	.	.	.	8dd/J)	8b-\J	.	.
=10	=10	=10	=10	=10	=10	=10	=10
4F/	4F\	.	.	4cc/	4a\	swe	.
4r	4ryy	.	.	4r	4ryy	.	.
8D/L	8D\L	.	.	4ff/	4dd\	bło-	.
8E/J	8E\J	.	.	.	.	.	.
8F/L	8F\L	.	.	4ff/	4dd\	-go-	.
8G/J	8G\J	.	.	.	.	.	.
=11	=11	=11	=11	=11	=11	=11	=11
4A/	4A\	.	.	4ee/	4cc#X\	-sła-	.
4A/	4D\	.	.	4ff/	4dd\	-wi	.
4A/	4A\	.	.	4ee/	4cc#\	dzie-	.
4A/	4D\	.	.	4ff/	4dd\	-ci	.
!!LO:PB:g=original
=12	=12	=12	=12	=12	=12	=12	=12
4A/	4A\	.	.	4ee/	4cc\	mo-	.
4A/	4AA\	.	.	4ee/	4cc#X\	-je	.
2ryy	8D\L	.	.	4ff/	4dd\	bło-	.
.	8E\J	.	.	.	.	.	.
.	8F\L	.	.	4ff/	4dd\	-go-	.
.	8G\J	.	.	.	.	.	.
=13	=13	=13	=13	=13	=13	=13	=13
4A/	4A\	.	.	4ee/	4cc#X\	-sła-	.
4A/	4D\	.	.	4ff/	4dd\	-wi	.
4A/	4A\	.	.	4ee/	4cc#\	dzie-	.
4A/	4D\	.	.	4ff/	4dd\	-ci	.
=14	=14	=14	=14	=14	=14	=14	=14
4A/	4A\	.	.	4ee/	4cc#X\	swo-	.
4A/	4AA\	.	.	4a/	4a\	-je	.
8F/L	8F\L	Ja-	.	2r	2ryy	.	.
8G/J	8G\J	.	.	.	.	.	.
8A/L	8A\L	-ko	.	.	.	.	.
8B-/J	8B-\J	.	.	.	.	.	.
=15	=15	=15	=15	=15	=15	=15	=15
4c/	4c\	Wład-	.	2r	2ryy	.	.
4c/	4c\	-ca	.	.	.	.	.
8E/L	8C\L	.	.	4.cc/	4.b-\	in-	.
8F/J	8D\J	.	.	.	.	.	.
8G/L	8E\L	.	.	.	.	.	.
8E/J	8C\J	.	.	8cc/	8b-\	-nych pod-	.
=16	=16	=16	=16	=16	=16	=16	=16
4F/	4F\	.	.	4cc/	4a\	-da-	.
4F/	4F\	.	.	4cc/	4a\	-nych-	.
2r	2ryy	.	.	2r	(>8a\L	Ja-	.
.	.	.	.	.	8bn\J)	.	.
.	.	.	.	.	(>8cc\L	-ko	.
.	.	.	.	.	8dd\J)	.	.
=17	=17	=17	=17	=17	=17	=17	=17
2r	2ryy	.	.	2r	4ee\	Wład-	.
.	.	.	.	.	4ee\	-ca	.
8G#X/L	8E\L	.	.	4.ee/	4.dd\	swych	.
8A/J	8F#X\J	.	.	.	.	.	.
8B-/L	8G#X\L	.	.	.	.	.	.
8G#/J	8E\J	.	.	8ee/	8dd\	pod-	.
!!LO:LB:g=original
=18	=18	=18	=18	=18	=18	=18	=18
4A/	4A\	.	.	4ee/	4cc\	-da-	.
4A/	4AA\	.	.	4ee/	4cc\	-nych	.
4r	4ryy	.	.	8dd/L	8dd\L	bło-	.
.	.	.	.	8ee/J	8ee\J	.	.
8d/	8B-\	.	.	8ff/L	4ff\	-go-	.
8d/	8Bn\	.	.	8gg/J	.	.	.
=19	=19	=19	=19	=19	=19	=19	=19
4.ryy	4.c\	.	.	4.aa/	4.ff\	-sła-	.
8c/	8C\	.	.	8aa/	8ff\	-wi	.
4.Bn/	4.C#X\	.	.	4.gg/	4.ff\	dzie-	.
8B-X/	8C#\	.	.	8gg/	8ee\	-ci	.
=20	=20	=20	=20	=20	=20	=20	=20
4A/	4D\	.	.	4ff/	4ee\	swo-	.
4A/	4D\	.	.	4ff/	4dd\	-je	.
4r	4ryy	.	.	(8dd/L	8dd\L	bło-	.
.	.	.	.	8ee/J)	8ee\J	.	.
8d/	8B-\	.	.	8ff/L	4ff\	-go-	.
8d/	8Bn\	.	.	8gg/J	.	.	.
=21	=21	=21	=21	=21	=21	=21	=21
2c/	2c\	.	.	(2aa/	2ff\	-sła-	.
2B-/	2C\	.	.	2gg/)	2ee\	.	.
=22	=22	=22	=22	=22	=22	=22	=22
4A/	4F\	.	.	4ff/	4cc\	-wi	.
4r	4ryy	.	.	4r	4ryy	.	.
4A/	4F\	.	.	4ff/	4cc\	dzie-	.
4A/	4F\	.	.	4ff/	4cc\	-ci	.
=23	=23	=23	=23	=23	=23	=23	=23
1B-	2BB-\	.	.	[1ff	1dd	swo-	.
.	2D\	.	.	.	.	.	.
=24	=24	=24	=24	=24	=24	=24	=24
1A	1F	.	.	1ff]	1a 1cc	-je.	.
*v	*v	*	*	*	*	*	*
*	*	*	*v	*v	*	*
!LO:LB:g=original	!	!	!	!	!
==	==	==	==	==	==
*-	*-	*-	*-	*-	*-
!!!system-decoration: {(s1,s2)}
!!!RDF**kern: < = below
!!!RDF**kern: > = above
!!!ENC: Andrzej Gręziak
!!!END: 2023-10-27
!!!EED: Marta Chmielewska
!!!EEV: 2024-04-22
